**kern
*staff2
*tb16
=1-
*clefG2
*k[b-e-]
*M6/8
8r
.
8r
.
8r
.
8r
.
8r
.
8r
.
=2
8B-/L
.
8d/
.
8g/J
.
(8c/L
.
8c/) 8e-/
.
8B-/J 8d/J
.
=3
8B-/L 8d/L
.
8A/
.
8G/J
.
*^
8a/L	4.d\
.	.
8g/J	.
.	.
8f#/J	.
.	.
*v	*v
=4
!!linebreak:original
4d/ 4g/
.
.
.
8r
.
4e-/ 4g/
.
.
.
8r
.
=5
8r
.
8d/L 8g/L
.
8en/J
.
(8d/L 8f#/L
.
8en/)
.
8e-/J
.
=6
8d/L
.
8f/
.
8b-/J
.
8e-/L 8g/L
.
8g-/
.
8d/J 8f/J
.
=7
!!linebreak:original
(4.c/ 4.e-/ 4.g/
.
.
.
.
.
4c/) 4d/ 4f#/
.
.
.
8d/ 8g/
.
=8
4.e-/ 4.g/
.
.
.
.
.
4.en/ 4.g/
.
.
.
.
.
=9
4d/ 4g/
.
.
.
16d/LL 16b-/LL
16a/JJ
4g/
.
.
.
8g/ 8bn/
.
=10
4g/ 4cc/
.
.
.
8f#/ 8a/
.
4en/ 4g/
.
.
.
8e-/ 8a/
.
=11
!!linebreak:original
8d/L 8a/L
.
8g/
.
8f/J
.
4.c/ 4.e-/
.
.
.
.
.
=12
8c/L 8e-/L
.
8B-/ 8d/
.
(8c#/J
.
4A/ 4cn/
.
.
.
8A/) 8c/
.
=13
4.A/ 4.c/
.
.
.
.
.
4G/ 4B-/ 4e-/ 4b-/
.
.
.
8g/ 8gg/
.
=14
4g\ 4ff\
.
.
.
8g\ 8ee-\
.
4g\ 4dd\
.
.
.
8g/ 8cc#/
.
=15
8g/L 8dd/L
.
8g/ 8b-/
.
8f#/J 8a/J
.
4g/
.
.
.
8r
.
==
*-
